X: 1
T: Sheen Sheesh igus souse lum
B: A COLECTION of the most Celebrated Irish Tunes17a
N: The last bar lacks the repeat sign.
M: C
L: 1/8
K: G
|:\
g3a (ga)b2 | Tg4 d4 | Te3d efgf | Te4 d4 |
g3a (ga)b2 | d2(cB) c2d2 | e2d2 c2B2 | TA4 G4 :|
|:\
TB3A B2c2 | d3e d2d2 | Te3d (ef)(gf) |Te4 d3(e/f/) |
g4 G4 | (ed)(cB) A2(Bc) | d3 e2 d cB | TA4 G4 :|
